packages/core/src/svgs/tokens/mono/GXC.svg

<svg width="24" height="24" viewBox="0 0 24 24" fill="none" xmlns="http://www.w3.org/2000/svg">
<path fill-rule="evenodd" clip-rule="evenodd" d="M2.96145 3.09079C3.96331 1.98955 5.6964 1.69831 7.03138 2.32704C7.39117 2.49543 7.71797 2.72678 7.99636 3.01016C9.33954 4.32876 10.6714 5.65878 11.9919 7.00008C12.6419 6.37322 13.2768 5.73136 13.9119 5.09075C14.6568 4.33825 15.4013 3.58639 16.1694 2.85892C17.5169 1.60832 19.8611 1.75206 21.0712 3.12641C22.2992 4.39575 22.3086 6.62633 21.0836 7.90132C19.7325 9.27622 18.3662 10.6368 16.9999 11.9974C17.55 12.5568 18.1062 13.11 18.6623 13.6637C19.4876 14.4787 20.3032 15.3034 21.1092 16.1374C22.3717 17.4518 22.2705 19.7735 20.9436 21.0067C19.8211 22.1467 17.8975 22.3161 16.565 21.4529C16.2744 21.2741 16.0343 21.0329 15.795 20.7923C15.7349 20.7324 15.675 20.6717 15.6138 20.6129C14.9231 19.9259 14.2348 19.2365 13.5488 18.5449C13.0369 18.0312 12.5262 17.5174 12.0132 17.0055C11.407 17.5929 10.8107 18.1917 10.2151 18.7899C9.41508 19.5923 8.61635 20.3942 7.79262 21.1724C6.42014 22.4173 4.05393 22.226 2.87083 20.8098C1.81085 19.6535 1.71523 17.7662 2.60208 16.4836C2.76271 16.2468 2.96457 16.0442 3.16582 15.8424L3.32645 15.6799C4.38267 14.6037 5.45141 13.54 6.52764 12.4825L6.78951 12.7449C7.20387 13.1606 7.61825 13.5762 8.03698 13.9887C7.56387 14.473 7.08325 14.9493 6.60201 15.4262C5.8714 16.1511 5.14079 16.8755 4.43768 17.6268C3.92331 18.1723 4.09706 19.1005 4.64205 19.5599C4.96454 19.8605 5.44391 19.9286 5.86265 19.8329C6.26202 19.7155 6.56201 19.4186 6.85201 19.1312L6.97576 19.0093C7.53075 18.4479 8.08823 17.8893 8.64572 17.3299C9.25948 16.7143 9.87314 16.098 10.4831 15.4806C9.47954 14.4732 8.47399 13.4677 7.46636 12.4644C5.95369 10.961 4.44787 9.45093 2.94895 7.93382C1.67773 6.65572 1.6921 4.36513 2.96145 3.09079ZM4.3908 4.70951C4.01518 5.23073 4.03393 6.03448 4.5283 6.47572C5.26829 7.24945 6.02827 8.00506 6.78701 8.76005C7.36199 9.33193 7.93636 9.90373 8.50261 10.4831C8.8776 10.1301 9.2414 9.76373 9.60379 9.39755C9.89443 9.10385 10.1851 8.8113 10.482 8.52444L10.2231 8.26318C8.99662 7.01838 7.76203 5.78151 6.51951 4.55262C6.30619 4.34155 6.03372 4.20031 5.73827 4.14764C5.23017 4.04764 4.68392 4.28889 4.3908 4.70951ZM13.5032 8.52318C14.834 7.18242 16.1719 5.84866 17.5168 4.52201C17.8043 4.25326 18.2018 4.09826 18.5967 4.12827C18.98 4.16576 19.353 4.36014 19.583 4.67388C19.8711 5.06762 19.9518 5.61449 19.7618 6.0676C19.6824 6.26135 19.5368 6.41447 19.393 6.56447L19.3475 6.61322C18.6871 7.30185 18.0153 7.97944 17.3324 8.64568C16.7168 9.25318 16.1019 9.85998 15.5037 10.4837C15.0491 10.0535 14.6017 9.61542 14.1619 9.17006L13.985 8.99317C13.4912 9.50066 12.9913 10.0032 12.485 10.4987C14.2819 12.3131 16.0906 14.1162 17.8994 15.92L19.1049 17.1218C19.4673 17.4668 19.8287 17.8817 19.878 18.4011C19.8905 18.8205 19.7255 19.2567 19.3956 19.5255C18.9037 19.9529 18.0693 20.0166 17.5893 19.5367C16.57 18.5742 15.5856 17.5754 14.6018 16.5774C14.2393 16.2099 13.8769 15.8424 13.5138 15.4774C13.8212 15.1768 14.1244 14.8712 14.4274 14.5662C14.6193 14.3724 14.8113 14.1788 15.0049 13.9868C14.6462 13.6387 14.2931 13.2844 13.9401 12.9306C13.7913 12.7805 13.6432 12.6318 13.4938 12.483C13.2462 12.7331 12.9976 12.9818 12.7482 13.2306C12.4981 13.4788 12.2494 13.7274 12.002 13.9775C11.3625 13.3213 10.7063 12.6825 10.0494 12.0431L10.0139 12.0081C11.1815 10.8512 12.3447 9.68951 13.5032 8.52318Z" fill="white"/>
</svg>

<svg xmlns="http://www.w3.org/2000/svg" width="24" height="24" fill="none" viewBox="0 0 24 24">
    <path fill="#fff" fill-rule="evenodd" d="M2.961 3.09c1.002-1.1 2.735-1.392 4.07-.763.36.168.687.4.965.683A331 331 0 0 1 11.992 7c.65-.627 1.285-1.269 1.92-1.91a99 99 0 0 1 2.257-2.231c1.348-1.25 3.692-1.107 4.902.267 1.228 1.27 1.238 3.5.013 4.775A526 526 0 0 1 17 11.997c.55.56 1.106 1.113 1.662 1.667q1.239 1.223 2.447 2.473c1.263 1.315 1.161 3.636-.165 4.87-1.123 1.14-3.046 1.31-4.379.446-.29-.179-.53-.42-.77-.66l-.181-.18q-1.036-1.03-2.065-2.068-.767-.771-1.536-1.54a141 141 0 0 0-1.798 1.785c-.8.802-1.599 1.604-2.422 2.382-1.373 1.245-3.74 1.054-4.922-.362-1.06-1.156-1.156-3.044-.269-4.326.16-.237.363-.44.564-.642l.16-.162a249 249 0 0 1 3.202-3.197l.262.262q.62.624 1.247 1.244c-.473.484-.954.96-1.435 1.437-.73.725-1.461 1.45-2.164 2.2-.515.546-.34 1.474.204 1.934.323.3.802.369 1.22.273.4-.117.7-.414.99-.702l.124-.122q.833-.84 1.67-1.68.92-.922 1.837-1.848-1.505-1.512-3.017-3.017a703 703 0 0 1-4.517-4.53c-1.271-1.278-1.257-3.569.012-4.843m1.43 1.62c-.376.52-.357 1.324.137 1.766.74.773 1.5 1.53 2.259 2.284a172 172 0 0 1 1.716 1.723c.375-.353.738-.72 1.1-1.085q.435-.442.879-.874l-.259-.26A406 406 0 0 0 6.52 4.552a1.5 1.5 0 0 0-.782-.405c-.508-.1-1.054.14-1.347.562m9.112 3.813a537 537 0 0 1 4.014-4.001 1.45 1.45 0 0 1 1.08-.394 1.4 1.4 0 0 1 .986.546c.288.394.369.94.179 1.394-.08.193-.225.346-.369.496l-.046.05a86 86 0 0 1-2.015 2.032c-.615.607-1.23 1.214-1.828 1.838q-.682-.646-1.342-1.314l-.177-.177a87 87 0 0 1-1.5 1.506c1.797 1.814 3.606 3.617 5.414 5.421l1.206 1.202c.362.345.724.76.773 1.28.012.418-.152.855-.482 1.124-.492.427-1.327.49-1.807.01a116 116 0 0 1-2.987-2.959q-.544-.552-1.088-1.1.46-.452.913-.91.288-.292.578-.58c-.359-.348-.712-.703-1.065-1.056l-.446-.448q-.371.375-.746.748-.375.371-.746.746c-.64-.656-1.296-1.295-1.953-1.934l-.035-.035a619 619 0 0 0 3.49-3.485" clip-rule="evenodd"/>
</svg>
